X: 2321
T: Bag Of Potatoes, The
R: reel
M: 4/4
K: Gmajor
Bd d2 Beed|BddB ~A2 GA|Bd d2 Beed|gabg ~a2 g2:|
|:gabg eaab|gabg e2d2|gabg eaab|gedB ~A2G2:|

